assets/img/logo.svg

<svg width="128" height="28" viewBox="0 0 128 28" fill="none" xmlns="http://www.w3.org/2000/svg">
<path d="M10.24 17.856L7.576 20.7V27H0.52V1.8H7.576V12.276L17.332 1.8H25.18L14.884 12.96L25.72 27H17.44L10.24 17.856ZM36.2849 27.324C34.1969 27.324 32.3129 26.892 30.6329 26.028C28.9529 25.164 27.6329 23.964 26.6729 22.428C25.7369 20.892 25.2689 19.152 25.2689 17.208C25.2689 15.288 25.7369 13.56 26.6729 12.024C27.6329 10.488 28.9409 9.3 30.5969 8.46C32.2769 7.596 34.1729 7.164 36.2849 7.164C38.3969 7.164 40.2929 7.596 41.9729 8.46C43.6529 9.3 44.9609 10.488 45.8969 12.024C46.8329 13.536 47.3009 15.264 47.3009 17.208C47.3009 19.152 46.8329 20.892 45.8969 22.428C44.9609 23.964 43.6529 25.164 41.9729 26.028C40.2929 26.892 38.3969 27.324 36.2849 27.324ZM36.2849 21.888C37.4849 21.888 38.4689 21.48 39.2369 20.664C40.0049 19.824 40.3889 18.672 40.3889 17.208C40.3889 15.768 40.0049 14.64 39.2369 13.824C38.4689 13.008 37.4849 12.6 36.2849 12.6C35.0849 12.6 34.1009 13.008 33.3329 13.824C32.5649 14.64 32.1809 15.768 32.1809 17.208C32.1809 18.672 32.5649 19.824 33.3329 20.664C34.1009 21.48 35.0849 21.888 36.2849 21.888ZM67.4305 21.888V27H49.4305V22.968L52.6345 19.26H50.5465V15.012H56.3425L58.4665 12.564H49.6825V7.488H67.0705V11.484L63.9745 15.048H66.2425V19.296H60.2665L58.0345 21.888H67.4305ZM78.2451 27.324C75.8451 27.324 73.9731 26.712 72.6291 25.488C71.3091 24.24 70.6491 22.464 70.6491 20.16V0.287998H77.4891V19.8C77.4891 20.52 77.6691 21.072 78.0291 21.456C78.4131 21.84 78.9411 22.032 79.6131 22.032C80.1651 22.032 80.6811 21.912 81.1611 21.672L81.4491 26.82C80.4171 27.156 79.3491 27.324 78.2451 27.324ZM93.3435 27.324C91.2555 27.324 89.3715 26.892 87.6915 26.028C86.0115 25.164 84.6915 23.964 83.7315 22.428C82.7955 20.892 82.3275 19.152 82.3275 17.208C82.3275 15.288 82.7955 13.56 83.7315 12.024C84.6915 10.488 85.9995 9.3 87.6555 8.46C89.3355 7.596 91.2315 7.164 93.3435 7.164C95.4555 7.164 97.3515 7.596 99.0315 8.46C100.711 9.3 102.019 10.488 102.955 12.024C103.891 13.536 104.359 15.264 104.359 17.208C104.359 19.152 103.891 20.892 102.955 22.428C102.019 23.964 100.711 25.164 99.0315 26.028C97.3515 26.892 95.4555 27.324 93.3435 27.324ZM93.3435 21.888C94.5435 21.888 95.5275 21.48 96.2955 20.664C97.0635 19.824 97.4475 18.672 97.4475 17.208C97.4475 15.768 97.0635 14.64 96.2955 13.824C95.5275 13.008 94.5435 12.6 93.3435 12.6C92.1435 12.6 91.1595 13.008 90.3915 13.824C89.6235 14.64 89.2395 15.768 89.2395 17.208C89.2395 18.672 89.6235 19.824 90.3915 20.664C91.1595 21.48 92.1435 21.888 93.3435 21.888ZM127.557 7.488L119.493 27H112.437L104.409 7.488H111.429L116.109 19.404L121.041 7.488H127.557Z" fill="black"/>
</svg>

<svg width="128" height="28" fill="none" xmlns="http://www.w3.org/2000/svg"><path d="M10.24 17.856L7.576 20.7V27H.52V1.8h7.056v10.476L17.332 1.8h7.848L14.884 12.96 25.72 27h-8.28l-7.2-9.144zm26.045 9.468c-2.088 0-3.972-.432-5.652-1.296-1.68-.864-3-2.064-3.96-3.6-.936-1.536-1.404-3.276-1.404-5.22 0-1.92.468-3.648 1.404-5.184.96-1.536 2.268-2.724 3.924-3.564 1.68-.864 3.576-1.296 5.688-1.296 2.112 0 4.008.432 5.688 1.296 1.68.84 2.988 2.028 3.924 3.564.936 1.512 1.404 3.24 1.404 5.184s-.468 3.684-1.404 5.22c-.936 1.536-2.244 2.736-3.924 3.6-1.68.864-3.576 1.296-5.688 1.296zm0-5.436c1.2 0 2.184-.408 2.952-1.224.768-.84 1.152-1.992 1.152-3.456 0-1.44-.384-2.568-1.152-3.384-.768-.816-1.752-1.224-2.952-1.224s-2.184.408-2.952 1.224c-.768.816-1.152 1.944-1.152 3.384 0 1.464.384 2.616 1.152 3.456.768.816 1.752 1.224 2.952 1.224zm31.145 0V27h-18v-4.032l3.205-3.708h-2.088v-4.248h5.796l2.123-2.448h-8.784V7.488H67.07v3.996l-3.095 3.564h2.268v4.248h-5.976l-2.233 2.592h9.396zm10.815 5.436c-2.4 0-4.272-.612-5.616-1.836-1.32-1.248-1.98-3.024-1.98-5.328V.288h6.84V19.8c0 .72.18 1.272.54 1.656.384.384.912.576 1.584.576.552 0 1.068-.12 1.548-.36l.288 5.148c-1.032.336-2.1.504-3.204.504zm15.099 0c-2.088 0-3.972-.432-5.652-1.296-1.68-.864-3-2.064-3.96-3.6-.936-1.536-1.404-3.276-1.404-5.22 0-1.92.468-3.648 1.403-5.184.96-1.536 2.269-2.724 3.925-3.564 1.68-.864 3.575-1.296 5.688-1.296 2.112 0 4.008.432 5.688 1.296 1.679.84 2.987 2.028 3.923 3.564.936 1.512 1.404 3.24 1.404 5.184s-.468 3.684-1.404 5.22c-.936 1.536-2.244 2.736-3.924 3.6-1.68.864-3.576 1.296-5.688 1.296zm0-5.436c1.2 0 2.184-.408 2.952-1.224.767-.84 1.151-1.992 1.151-3.456 0-1.44-.383-2.568-1.151-3.384-.769-.816-1.753-1.224-2.953-1.224s-2.184.408-2.952 1.224c-.767.816-1.151 1.944-1.151 3.384 0 1.464.384 2.616 1.151 3.456.768.816 1.752 1.224 2.953 1.224zm34.213-14.4L119.493 27h-7.056l-8.028-19.512h7.02l4.68 11.916 4.932-11.916h6.516z" fill="#000"/></svg>
